X: 239
P: Longways for as many as will
M: C|
L: 1/8
K: F
defd AB cA | dc BA G2DE | F2f2 c3B | A2 F4 |]
de |\
fefg fgaf | gfga gage | fefg fgaf | gfed cdec |\
defd AB cA | dc BA G2 DE | F2f2 c3B | A2 F4 |]

